svg/fluentui-system-icons/ic_fluent_slide_arrow_right_24_filled.svg

<svg width="24" height="24" viewBox="0 0 24 24" fill="none" xmlns="http://www.w3.org/2000/svg">
<path d="M2 6.75C2 5.23122 3.23122 4 4.75 4H19.25C20.7688 4 22 5.23122 22 6.75V12.8096C20.8321 11.6888 19.2465 11 17.5 11C16.9076 11 16.3337 11.0793 15.7883 11.2277C15.652 11.0873 15.4612 11 15.25 11H6.75C6.33579 11 6 11.3358 6 11.75C6 12.1642 6.33579 12.5 6.75 12.5H13.3464C12.8317 12.9281 12.3841 13.4341 12.0218 14H6.75C6.33579 14 6 14.3358 6 14.75C6 15.1642 6.33579 15.5 6.75 15.5H11.3135C11.11 16.1301 11 16.8022 11 17.5C11 18.3859 11.1772 19.2304 11.4982 20H4.75C3.23122 20 2 18.7688 2 17.25V6.75ZM6.75 8C6.33579 8 6 8.33579 6 8.75C6 9.16421 6.33579 9.5 6.75 9.5H11.25C11.6642 9.5 12 9.16421 12 8.75C12 8.33579 11.6642 8 11.25 8H6.75ZM23 17.5C23 20.5376 20.5376 23 17.5 23C14.4624 23 12 20.5376 12 17.5C12 14.4624 14.4624 12 17.5 12C20.5376 12 23 14.4624 23 17.5ZM14.5 17C14.2239 17 14 17.2239 14 17.5C14 17.7761 14.2239 18 14.5 18H19.2929L17.6464 19.6464C17.4512 19.8417 17.4512 20.1583 17.6464 20.3536C17.8417 20.5488 18.1583 20.5488 18.3536 20.3536L20.8536 17.8536C21.0488 17.6583 21.0488 17.3417 20.8536 17.1464L18.3536 14.6464C18.1583 14.4512 17.8417 14.4512 17.6464 14.6464C17.4512 14.8417 17.4512 15.1583 17.6464 15.3536L19.2929 17H14.5Z" fill="#212121"/>
</svg>

<svg xmlns="http://www.w3.org/2000/svg" width="24" height="24"><path d="M2 6.75A2.75 2.75 0 0 1 4.75 4h14.5A2.75 2.75 0 0 1 22 6.75v6.06A6.478 6.478 0 0 0 17.5 11c-.592 0-1.166.08-1.712.228A.748.748 0 0 0 15.25 11h-8.5a.75.75 0 0 0 0 1.5h6.596a6.536 6.536 0 0 0-1.324 1.5H6.75a.75.75 0 0 0 0 1.5h4.563a6.497 6.497 0 0 0-.313 2c0 .886.177 1.73.498 2.5H4.75A2.75 2.75 0 0 1 2 17.25V6.75ZM6.75 8a.75.75 0 0 0 0 1.5h4.5a.75.75 0 0 0 0-1.5h-4.5ZM23 17.5a5.5 5.5 0 1 1-11 0 5.5 5.5 0 0 1 11 0Zm-8.5-.5a.5.5 0 0 0 0 1h4.793l-1.647 1.646a.5.5 0 0 0 .708.708l2.5-2.5a.5.5 0 0 0 0-.708l-2.5-2.5a.5.5 0 0 0-.708.708L19.293 17H14.5Z"/></svg>
